X: 43
T: The Thunderbird Nation
C: Teton Sioux band 1911-1914
N: Derived from sioux043.krn
O: South Dakota, U.S.A.
N: Teton Sioux Music by Frances Densmore, 1918
Z: transcribed to **kern format by Craig Sapp
L: 1/16
M: 3/4
Q: 1/4=58
K: G clef=bass
%%linebreak <none>
B,2 B,2 [I:setbarnb 1]| 
B,12 ||  
[M:2/4]A,4(A,3 G,) | 
G,2< G,2G,4- ||  
[M:3/4]G,8E,3 G, | 
G,12 ||  
[M:2/4]G,4(G,3 E,) | 
D,2< D,2 D,3 D, | 
D,8 | 
D,7D | 
(D A,) A,> D (D A,) A,2 | 
G,2< G,2G,4 | 
G,4E,3 G, ||  
[M:3/4]G,12 ||  
[M:2/4]G,4(G,3 E,) | 
D,2< D,2D,4- | 
D,8 | 
B,,4B,,3 B,, ||  
[M:3/4]B,,12 ||  
[M:2/4]A,,4A,,4 | 
G,,2< G,,2G,,4- | 
G,,8 | 
G,,4G,,3 G,, ||  
[M:3/4]G,,12 ||  
[M:2/4]G,,4G,,4 | 
D,,2< D,,2 D,,3 D,, | 
D,,8 |]  



